teeny/solid/headset.svg

<svg width="15" height="15" viewBox="0 0 15 15" fill="none" xmlns="http://www.w3.org/2000/svg">
<path d="M2.5 6C1.97535 6 1.48846 6.16161 1.08637 6.43776C1.5934 3.3532 4.27189 1 7.5 1C10.7281 1 13.4066 3.3532 13.9136 6.43777C13.5115 6.16161 13.0246 6 12.5 6C11.6716 6 11 6.67157 11 7.5V11.5C11 12.1333 11.3925 12.6749 11.9475 12.895C11.7741 13.5318 11.1917 14 10.5 14H8V15H10.5C11.7242 15 12.7429 14.12 12.9581 12.9581C14.12 12.7429 15 11.7242 15 10.5V7.5C15 3.35786 11.6421 0 7.5 0C3.35786 0 0 3.35786 0 7.5V10.5C0 11.8807 1.11929 13 2.5 13C3.32843 13 4 12.3284 4 11.5V7.5C4 6.67157 3.32843 6 2.5 6Z" fill="black"/>
</svg>

<svg viewBox="0 0 15 15" xmlns="http://www.w3.org/2000/svg"><path d="M2.5 6c-.53 0-1.02.16-1.42.43C1.58 3.34 4.26.99 7.49.99c3.22 0 5.9 2.35 6.41 5.43 -.41-.28-.89-.44-1.42-.44 -.83 0-1.5.67-1.5 1.5v4c0 .63.39 1.17.94 1.39 -.18.63-.76 1.1-1.45 1.1h-2.5v1h2.5c1.22 0 2.24-.88 2.45-2.05 1.16-.22 2.04-1.24 2.04-2.46v-3c0-4.15-3.36-7.5-7.5-7.5 -4.15 0-7.5 3.35-7.5 7.5v3c0 1.38 1.11 2.5 2.5 2.5 .82 0 1.5-.68 1.5-1.5v-4c0-.83-.68-1.5-1.5-1.5Z"/></svg>
